-----BEGIN PGP PUBLIC KEY BLOCK-----

mQINBGNZi7QBEAC3Ym5CAidu+UEOB/0cqkCNhCquslcyuBr3weYZtp8LFmLVrxQm
fCLU9vpPDUO7ZtlrEh4AKfS5NXB/O8CoAfpWeIrc9MQSHlWeOanhrHFcNLMJWz1A
L3WQbYskgchOCrxNg2TfXS7R88n+5duzOnHHzO22toZM5TDMCA/Fc46i5oTZC2JU
Bw0H2FU8hOoJRrquiSgGEcr7BCn4qjHEsEXIumHU46YcvQJS/BNsiBpHuGjcE0rb
rVBhbgT4skklWa9TxX64RJkRVl2/nq0ZPxRJP+gwru94p9kTQhJS/hxcELyaj9ih
+oj0Rr7snu3IwZI79ODFB8Tm7sRBXAj9x4ok9cshSzT0GfDG2fQKGdB6xsF5XQPk
OQmEho8NeQI/UhfwPqvQu3pw62zOH1nu4MrHUSPj4/CIDbnR9p8gHD5YUvVICxnA
Cfod+476p38jrqsY55ID5iTCorcTmDnPwXlJFTGmrITZpTnvV6dJTmPMJFd/y5kS
hdYrj4bt/mKpLeFVemo7h0VR7HHjqwa1X08Liddt8nLXzZK8z99BHE+Hw/XYonqn
dowgiB3rt/eGNTHfJJJWhTNN2OiBUVaY8biuhYmpWElJhjgt/+B7DYzL1K8BnzMR
vyWUyd04RgJj/G2yzUvCVK8PcJegsKcBiGkgVCMYzi185toQ4y1vy03jIwARAQAB
tDdKb2huIEdlbWlnbmFuaSAoQXBhY2hlIEdQRyBrZXkpIDxqZ2VtaWduYW5pQGFw
YWNoZS5vcmc+iQI5BBMBAgAjBQJjWYu0AhsDBwsJCAcDAgEGFQgCCQoLBBYCAwEC
HgECF4AACgkQJrbNnc1bAEWwBRAArTwcmGSUpDLVOvJSkuHQvL8pofIHFimcFv/H
j7CeKC+dvbLZDI9aate3aEnamWMkE789Bs6s06TftTkjYgagEMd7WGGAaeiuTZ6U
gN5dCzWJRmZyKbyvqh8MlrZTCxh15sL2L8aX37zfcyABRp81A5jbPe1wjFbCFU40
UhNFNYkrHLPMgKhiSn+K0eXpMG1NYCTQR0XO2qzuQZdP552CME8ArvoDvTlyWm4o
P7p1pwFGRHsdJFmEKAQlHTKwK+aVLGX45c6KFOm+SWrAgNzbnhjZQTsE3xc1aOXI
3hQ4HSDmHoi4q0U9/rdG6049DsGZjz8+7kj5tEBEzO7YlNd6fr64lSlLaPOQ8v+x
NxTJV8o6x6cZpPNkK6bBZqN4oLbv1ikkLVdKrg3VEVReZEiv3BhhyKTYMel4kHcc
fQhV7mAa10zvjBlREIjP74R8p7XGlEfB9p6+OP5NpylX54w5r+F1gYyeK9uipbtE
8srt+7i/nMBTi8YRxt9JYJlHYI1WUE80cjsjrKGpaciXGym9NQ5ekIPdCNP8fXfT
G7m1soKWq9d1pXvS7kt9dANq5Rz0gaXK/ugw/WnMCFv8XNFqMBxv3XUVJB5AAXZx
rQAm576RauVqN6tHAN8JUDEk+Uo2nvqqB700EWEIdqrr/zZhd1D5C/LiVqbY5kLv
YvVMmQW5Ag0EY1mLtAEQAMJCgJzpRK72PhkARbAnd1+lqrqnvApMOALP5PkTG6h2
lQJU2867Ik8DtjjGDb4F9iMpzfrtIex6QOLPmv0cOAeGdtnm4mvjKjDJ7dvwFdaA
VIKwySEf7hCju7+eST3qFKIJfhwgkE4LgFYD3WqMt6DrSh4Tv6qZIghdrT79R+oe
fcMezVaqUZBbnIBfNn07ULWtuRk5o6GmNSzkpXkQzKXti8h6laXQsfZo+SNFxhAb
6ncOLnQIZzp8aSkgOYK+5STy4MeIMDoYp3VvmKDiUMtHS63bqHxc+19aboVx6L/9
4jGHGnwNzThBIMYWnd+TVZ7/APrlme8ymjHOFcDI6HVvOTVrRgcrBYlFl840V89f
BvmCRWzVcdDf+tGESGnzoZug/rGsIWEYW7GHC0WD46xgjUKpXpXrnytbZwX7gO+0
NGErkUkzl7T82iEdmUEjtw16yMUJOrtG5iSfjp/4SduGsMSElydFL5sEeKM4xmNY
54iat0zgCwEvDb+T/r+JYYmQhKqDMly9T8hldWV3tKro6PjTGzfZ1onxDVqNnaH1
e3CUC0xiXyizoVgfdZm9oT9WySdvgXd5rKK7zWwwJziCScWY30940/hCCU/iWNR3
fSVAiuGU5RogRWC9ywk505rq2pK6FNuSacSdI9+G/I3n3U/VEMv6mK/9CpIcmDS/
ABEBAAGJAh8EGAECAAkFAmNZi7QCGwwACgkQJrbNnc1bAEWZOBAAteEmAIGSK99J
uAclp5j3uF4rqS4AbJxOdlnuhADsWk7q/0jpik5lXt9SNrR5O9g90E8lDOVl22Mx
vjAT9x42gB4zXlLh2yN5434u5/jaCvpimE29TqgOnEu7mFvWgAP/GIytRBVcQOSl
p56d8AfcdYtHjwMulMpma0+NW/OtXaKn3wuVnwUgZ/nZiZCQLF3lP/AtIcLDUgMZ
mJVakG7ZbXjDorSrSMmUxZSrmtljcYg5PkwZQcqPw/qpcL8MFV7oG4wPcflcOE0h
xjzKtVqzMVT1oWo6ycyUWG5mpeWLFvhbBkGHFPZRVrx4bWVf+eU/IiaZXZxNhH07
AiWdw48N0ov4HqxjoaA6e0nS+9zsxRwE07MEBneXFS7TJ9kcWiAhAmgjz8twl0LZ
WPUWb0f8c50FTZCMc1NOIpjN+5eXtO9HpTxIeox/skVWbhJnpfNwiRy7eS6748R9
LKo1am/Jsu9tzEv2MPkNGZ6vrOtpvkr3K/koCtLPLAXwwfACnpX/Flvtk1Um7hsQ
YJim/BpcvtmADI2tv//5fceafUOzlT8bOW+o3RbpRe4Dbdf8Px9CRcTDEmEzFpqo
UnOHm0CiFUAEKzZzYSqwRvZ6OikAvBFi9X/mdv5TNu/Z7frm1yK0596rOXgvFswz
agjF/bEWQdh8ZqPCztUmt+B3zLj/cYo=
=/2bJ
-----END PGP PUBLIC KEY BLOCK-----
